X:118
T:Witty Hornpipe TS.118
M:C|
L:1/8
Q:1/2=90
S:Thomas Sands’ MS,1810,Lincolnshire
R:.hornpipe
O:England;Lincolnshire
Z:vmp.Ruairidh Greig, 2011
K:D
FG|A2AB AdBG|FdBGE3G|FAdf gefd|cABG FDFG|
A2AB AdBG|FdBGE3G|FAdf gedc|d2d2d2:|
|:cd|e2ea ecAc|d2frdB2ef|gfed dcBA|cBAG FDFG|
A2AB AdBG|FdBGE3G|FAdf gedc|d2d2d2:|]

